img/apple-music.svg

<svg width="24" height="24" viewBox="0 0 24 24" fill="none" xmlns="http://www.w3.org/2000/svg">
<path fill-rule="evenodd" clip-rule="evenodd" d="M21.992 22.816C22.76 22.224 23.296 21.392 23.528 20.8C23.992 19.608 24 18.256 24 17.4V6.6C24 5.752 24 4.392 23.528 3.2C23.296 2.608 22.752 1.768 21.992 1.184C21.491 0.785065 20.9179 0.486297 20.304 0.304C19.528 0.08 18.584 0 17.4 0H6.6C5.416 0 4.472 0.08 3.696 0.304C3.08342 0.489608 2.51093 0.788064 2.008 1.184C1.24 1.776 0.704 2.608 0.472 3.2C0.00800002 4.392 0 5.744 0 6.6V17.4C0 18.256 0.00800002 19.608 0.472 20.8C0.704 21.392 1.248 22.232 2.008 22.816C2.448 23.16 2.976 23.48 3.696 23.696C4.472 23.92 5.416 24 6.6 24H17.4C18.584 24 19.536 23.928 20.304 23.696C20.9166 23.5104 21.4891 23.2119 21.992 22.816ZM16.286 3.766C16.348 3.753 16.862 3.662 16.92 3.656C17.305 3.623 17.52 3.876 17.52 4.286V15.575C17.52 15.878 17.517 16.152 17.453 16.456C17.3939 16.7505 17.2755 17.0298 17.105 17.277C16.9329 17.5239 16.7095 17.7306 16.45 17.883C16.1923 18.0306 15.9112 18.1331 15.619 18.186C15.067 18.296 14.689 18.322 14.335 18.251C14.012 18.1866 13.7131 18.0343 13.471 17.811C13.1322 17.503 12.9174 17.082 12.867 16.627C12.8399 16.3569 12.8714 16.0841 12.9595 15.8273C13.0475 15.5705 13.1899 15.3357 13.377 15.139C13.574 14.932 13.822 14.769 14.153 14.64C14.5 14.506 14.882 14.425 15.47 14.307L15.934 14.213C16.139 14.172 16.313 14.12 16.454 13.948C16.596 13.775 16.598 13.564 16.598 13.355V8.084C16.598 7.68 16.416 7.57 16.032 7.644C15.756 7.698 9.842 8.891 9.842 8.891C9.509 8.971 9.392 9.081 9.392 9.494V17.216C9.392 17.519 9.377 17.794 9.312 18.098C9.25278 18.3921 9.13438 18.6711 8.964 18.918C8.79217 19.1647 8.56909 19.3714 8.31 19.524C8.05249 19.6729 7.77145 19.7767 7.479 19.831C6.927 19.943 6.549 19.967 6.195 19.896C5.87172 19.8307 5.57275 19.6774 5.331 19.453C4.99612 19.1438 4.78621 18.7226 4.741 18.269C4.71127 17.9999 4.74021 17.7275 4.82584 17.4706C4.91146 17.2137 5.05173 16.9785 5.237 16.781C5.434 16.573 5.682 16.41 6.013 16.281C6.36 16.147 6.742 16.067 7.33 15.948L7.794 15.855C7.998 15.813 8.173 15.761 8.314 15.589C8.454 15.417 8.471 15.215 8.471 15.007V6.104C8.471 5.984 8.481 5.903 8.487 5.863C8.50695 5.68457 8.59248 5.51991 8.727 5.401C8.8558 5.29863 9.00803 5.2299 9.17 5.201H9.173L16.286 3.766Z" fill="url(#paint0_linear_1_12)"/>
<defs>
<linearGradient id="paint0_linear_1_12" x1="12" y1="23.907" x2="12" y2="0.516999" gradientUnits="userSpaceOnUse">
<stop stop-color="#FA233B"/>
<stop offset="1" stop-color="#FB5C74"/>
</linearGradient>
</defs>
</svg>

<svg xmlns="http://www.w3.org/2000/svg" width="24" height="24" fill="none" viewBox="0 0 24 24">
  <g clip-path="url(#a)">
    <path fill="url(#b)" fill-rule="evenodd" d="M21.992 22.816c.768-.592 1.304-1.424 1.536-2.016.464-1.192.472-2.544.472-3.4V6.6c0-.848 0-2.208-.472-3.4-.232-.592-.776-1.432-1.536-2.016a4.99 4.99 0 0 0-1.688-.88C19.528.08 18.584 0 17.4 0H6.6C5.416 0 4.472.08 3.696.304a5.137 5.137 0 0 0-1.688.88C1.24 1.776.704 2.608.472 3.2.008 4.392 0 5.744 0 6.6v10.8c0 .856.008 2.208.472 3.4.232.592.776 1.432 1.536 2.016.44.344.968.664 1.688.88.776.224 1.72.304 2.904.304h10.8c1.184 0 2.136-.072 2.904-.304a5.137 5.137 0 0 0 1.688-.88Zm-5.706-19.05c.062-.013.576-.104.634-.11.385-.033.6.22.6.63v11.289c0 .303-.003.577-.067.881a2.212 2.212 0 0 1-.348.821 2.087 2.087 0 0 1-.655.606 2.605 2.605 0 0 1-.831.303c-.552.11-.93.136-1.284.065a1.791 1.791 0 0 1-.864-.44 1.88 1.88 0 0 1-.604-1.184 1.886 1.886 0 0 1 .51-1.488c.197-.207.445-.37.776-.499.347-.134.729-.215 1.317-.333l.464-.094c.205-.041.379-.093.52-.265.142-.173.144-.384.144-.593V8.084c0-.404-.182-.514-.566-.44-.276.054-6.19 1.247-6.19 1.247-.333.08-.45.19-.45.603v7.722c0 .303-.015.578-.08.882a2.213 2.213 0 0 1-.348.82 2.088 2.088 0 0 1-.654.606 2.613 2.613 0 0 1-.831.307c-.552.112-.93.136-1.284.065a1.792 1.792 0 0 1-.864-.443 1.863 1.863 0 0 1-.59-1.184 1.874 1.874 0 0 1 .496-1.488c.197-.208.445-.371.776-.5.347-.134.729-.214 1.317-.333l.464-.093c.204-.042.379-.094.52-.266.14-.172.157-.374.157-.582V6.104c0-.12.01-.201.016-.241a.724.724 0 0 1 .24-.462.992.992 0 0 1 .443-.2h.003l7.113-1.435Z" clip-rule="evenodd"/>
  </g>
  <defs>
    <linearGradient id="b" x1="12" x2="12" y1="23.907" y2=".517" gradientUnits="userSpaceOnUse">
      <stop stop-color="#FA233B"/>
      <stop offset="1" stop-color="#FB5C74"/>
    </linearGradient>
    <clipPath id="a">
      <path fill="#fff" d="M0 0h24v24H0z"/>
    </clipPath>
  </defs>
</svg>
